Newaita-dark/.DP/32/viber-normal.svg

<svg xmlns="http://www.w3.org/2000/svg" xmlns:xlink="http://www.w3.org/1999/xlink" width="32px" height="32px" viewBox="0 0 32 32" version="1.1">
<g id="surface1">
<path style=" stroke:none;fill-rule:nonzero;fill:rgb(93.333334%,93.333334%,93.333334%);fill-opacity:1;" d="M 23.308594 27.796875 L 20 22.066406 C 19.632812 21.433594 19.851562 20.625 20.484375 20.261719 L 21.628906 19.597656 C 22.261719 19.234375 23.070312 19.449219 23.4375 20.082031 L 26.746094 25.8125 C 27.109375 26.445312 26.894531 27.253906 26.261719 27.621094 L 25.113281 28.28125 C 24.480469 28.644531 23.671875 28.429688 23.308594 27.796875 Z M 23.308594 27.796875 "/>
<path style=" stroke:none;fill-rule:nonzero;fill:rgb(93.333334%,93.333334%,93.333334%);fill-opacity:1;" d="M 11.292969 20.21875 C 12.617188 22.511719 17.578125 31.105469 22.734375 28.128906 L 19.425781 22.398438 C 17.707031 23.390625 14.910156 21.1875 13.585938 18.894531 C 12.261719 16.605469 11.753906 13.078125 13.472656 12.085938 L 10.164062 6.355469 C 5.007812 9.332031 9.972656 17.925781 11.292969 20.21875 Z M 11.292969 20.21875 "/>
<path style=" stroke:none;fill-rule:nonzero;fill:rgb(93.333334%,93.333334%,93.333334%);fill-opacity:1;" d="M 10.738281 6.027344 L 14.042969 11.753906 C 14.410156 12.386719 15.21875 12.605469 15.851562 12.238281 L 16.996094 11.578125 C 17.628906 11.214844 17.847656 10.402344 17.480469 9.769531 L 14.175781 4.042969 C 13.808594 3.410156 13 3.191406 12.367188 3.558594 L 11.222656 4.21875 C 10.589844 4.582031 10.371094 5.394531 10.738281 6.027344 Z M 10.738281 6.027344 "/>
</g>
</svg>

<svg xmlns="http://www.w3.org/2000/svg" width="32" height="32"><g fill="#bdbdbd"><path d="M23.309 27.797L20 22.067a1.318 1.318 0 0 1 .484-1.805l1.145-.664a1.327 1.327 0 0 1 1.808.484l3.305 5.73a1.322 1.322 0 0 1-.48 1.81l-1.149.66a1.321 1.321 0 0 1-1.804-.485zm0 0" fill-opacity=".986"/><path d="M11.293 20.219c1.324 2.293 6.285 10.886 11.441 7.91l-3.308-5.73c-1.719.992-4.52-1.212-5.84-3.504-1.324-2.29-1.832-5.817-.113-6.81l-3.309-5.73c-5.156 2.98-.195 11.57 1.129 13.864zm0 0"/><path d="M10.738 6.027l3.309 5.727a1.318 1.318 0 0 0 1.805.484l1.148-.66a1.327 1.327 0 0 0 .484-1.808l-3.308-5.727a1.323 1.323 0 0 0-1.809-.484l-1.144.66a1.323 1.323 0 0 0-.485 1.808zm0 0" fill-opacity=".986"/></g></svg>
